app/assets/images/logo.svg

<svg xmlns="http://www.w3.org/2000/svg" style="width:40px;height:40px" viewBox="0 0 478.7 507.3"><path fill="#B4B3B3" d="M478.1 88.3c.3-2.7-1.5-5.7-4.1-6.6l-229.9-80c-2.6-.9-6.8-.9-9.4 0l-230 80c-2.6.9-4.5 3.9-4.1 6.6l36.8 304.1c.3 2.7 2.6 6 5 7.4L235 505c2.4 1.3 6.4 1.3 8.8 0l192.6-105.2c2.4-1.3 4.7-4.6 5-7.4l36.7-304.1z"/><path fill="#E53238" d="M451.7 107c.3-2.7-1.5-5.7-4.1-6.6L244.1 29.5c-2.6-.9-6.8-.9-9.4 0L31 100.4c-2.6.9-4.5 3.9-4.1 6.6l32.6 269.5c.3 2.7 2.6 6 5 7.4L234.9 477c2.4 1.3 6.4 1.3 8.8 0l170.4-93.1c2.4-1.3 4.7-4.6 5-7.4L451.7 107z"/><path fill="#fff" d="M398.1 227.5h-32.9c-5.4-60.9-53.8-109.3-114.7-114.7V79.9c0-6.2-5-11.2-11.2-11.2-6.2 0-11.2 5-11.2 11.2v32.9c-60.9 5.3-109.3 53.8-114.7 114.7H80.5c-6.2 0-11.2 5-11.2 11.2 0 6.2 5 11.2 11.2 11.2h32.9c5.3 60.9 53.8 109.4 114.7 114.8v32.8c0 6.2 5 11.2 11.2 11.2 6.2 0 11.2-5 11.2-11.2v-32.8c60.9-5.4 109.4-53.9 114.7-114.8h32.9c6.2 0 11.2-5 11.2-11.2 0-6.2-5-11.2-11.2-11.2zm-53.5 0h-40.9c-4.7-27.1-26-48.4-53.1-53.1v-40.8c49.4 5.1 88.7 44.4 94 93.9zm-148.1 0c4-15.4 16.2-27.6 31.6-31.6v31.6h-31.6zm31.6 22.4v31.6c-15.4-4-27.6-16.1-31.6-31.6h31.6zm11.2-22.4c6.2 0 11.2 5 11.2 11.2 0 6.2-5 11.2-11.2 11.2-6.2 0-11.2-5-11.2-11.2 0-6.2 5-11.2 11.2-11.2zm11.2 22.4H282c-4 15.4-16.1 27.5-31.5 31.5v-31.5zm0-22.4V196c15.4 4 27.5 16.1 31.5 31.5h-31.5zm-11.2-115.3c6.2 0 11.2 5 11.2 11.2 0 6.2-5 11.2-11.2 11.2-6.2 0-11.2-5-11.2-11.2 0-6.2 5-11.2 11.2-11.2zm-11.2 21.3v40.8c-27.1 4.7-48.5 26-53.2 53.2h-40.8c5.3-49.5 44.6-88.8 94-94zm-104 116.4c-6.2 0-11.2-5-11.2-11.2 0-6.2 5-11.2 11.2-11.2 6.2 0 11.2 5 11.2 11.2 0 6.2-5 11.2-11.2 11.2zm10 0h40.8c4.7 27.1 26.1 48.5 53.2 53.2V344c-49.5-5.3-88.8-44.6-94-94.1zm105.2 115.2c-6.2 0-11.2-5-11.2-11.2s5-11.2 11.2-11.2c6.2 0 11.2 5 11.2 11.2s-5 11.2-11.2 11.2zm11.2-21.1v-41c27.1-4.7 48.4-26.1 53.1-53.1h40.9c-5.1 49.5-44.5 88.8-94 94.1zm104.1-94.1c-6.2 0-11.2-5-11.2-11.2 0-6.2 5-11.2 11.2-11.2 6.2 0 11.2 5 11.2 11.2 0 6.2-5 11.2-11.2 11.2z"/><path d="M451.7 107c.3-2.7-1.5-5.7-4.1-6.6L244.1 29.5c-2.6-.9-4.7.6-4.7 3.4v441.5c0 2.8 2 3.9 4.4 2.6l170.4-93.1c2.4-1.3 4.7-4.6 5-7.4L451.7 107z" opacity=".4"/></svg>

<svg version="1.1" xmlns="http://www.w3.org/2000/svg" xmlns:xlink="http://www.w3.org/1999/xlink" x="0px" y="0px" viewBox="0 0 478.7 507.3" enable-background="new 0 0 478.7 507.3" xml:space="preserve"><g id="Border"><path fill="#B4B3B3" d="M478.1,88.3c0.3-2.7-1.5-5.7-4.1-6.6l-229.9-80c-2.6-0.9-6.8-0.9-9.4,0L4.7,81.7c-2.6,0.9-4.5,3.9-4.1,6.6 l36.8,304.1c0.3,2.7,2.6,6,5,7.4l192.6,105.2c2.4,1.3,6.4,1.3,8.8,0l192.6-105.2c2.4-1.3,4.7-4.6,5-7.4L478.1,88.3z"/></g><g id="Background"><path fill="#E53238" d="M451.7,107c0.3-2.7-1.5-5.7-4.1-6.6L244.1,29.5c-2.6-0.9-6.8-0.9-9.4,0L31,100.4c-2.6,0.9-4.5,3.9-4.1,6.6 l32.6,269.5c0.3,2.7,2.6,6,5,7.4L234.9,477c2.4,1.3,6.4,1.3,8.8,0l170.4-93.1c2.4-1.3,4.7-4.6,5-7.4L451.7,107z"/></g><path id="Cross" fill="#FFFFFF" d="M398.1,227.5h-32.9c-5.4-60.9-53.8-109.3-114.7-114.7V79.9c0-6.2-5-11.2-11.2-11.2 c-6.2,0-11.2,5-11.2,11.2v32.9c-60.9,5.3-109.3,53.8-114.7,114.7H80.5c-6.2,0-11.2,5-11.2,11.2c0,6.2,5,11.2,11.2,11.2h32.9 c5.3,60.9,53.8,109.4,114.7,114.8v32.8c0,6.2,5,11.2,11.2,11.2c6.2,0,11.2-5,11.2-11.2v-32.8c60.9-5.4,109.4-53.9,114.7-114.8h32.9 c6.2,0,11.2-5,11.2-11.2C409.3,232.5,404.3,227.5,398.1,227.5z M344.6,227.5h-40.9c-4.7-27.1-26-48.4-53.1-53.1v-40.8 C300,138.7,339.3,178,344.6,227.5z M196.5,227.5c4-15.4,16.2-27.6,31.6-31.6v31.6H196.5z M228.1,249.9v31.6 c-15.4-4-27.6-16.1-31.6-31.6H228.1z M239.3,227.5c6.2,0,11.2,5,11.2,11.2c0,6.2-5,11.2-11.2,11.2c-6.2,0-11.2-5-11.2-11.2 C228.1,232.5,233.1,227.5,239.3,227.5z M250.5,249.9H282c-4,15.4-16.1,27.5-31.5,31.5V249.9z M250.5,227.5v-31.5 c15.4,4,27.5,16.1,31.5,31.5H250.5z M239.3,112.2c6.2,0,11.2,5,11.2,11.2c0,6.2-5,11.2-11.2,11.2c-6.2,0-11.2-5-11.2-11.2 C228.1,117.2,233.1,112.2,239.3,112.2z M228.1,133.5v40.8c-27.1,4.7-48.5,26-53.2,53.2h-40.8C139.4,178,178.7,138.7,228.1,133.5z M124.1,249.9c-6.2,0-11.2-5-11.2-11.2c0-6.2,5-11.2,11.2-11.2c6.2,0,11.2,5,11.2,11.2C135.3,244.9,130.3,249.9,124.1,249.9z M134.1,249.9h40.8c4.7,27.1,26.1,48.5,53.2,53.2V344C178.6,338.7,139.3,299.4,134.1,249.9z M239.3,365.1c-6.2,0-11.2-5-11.2-11.2 s5-11.2,11.2-11.2c6.2,0,11.2,5,11.2,11.2S245.5,365.1,239.3,365.1z M250.5,344V303c27.1-4.7,48.4-26.1,53.1-53.1h40.9 C339.4,299.4,300,338.7,250.5,344z M354.6,249.9c-6.2,0-11.2-5-11.2-11.2c0-6.2,5-11.2,11.2-11.2c6.2,0,11.2,5,11.2,11.2 C365.8,244.9,360.8,249.9,354.6,249.9z"/><g opacity="0.4"><path d="M451.7,107c0.3-2.7-1.5-5.7-4.1-6.6L244.1,29.5c-2.6-0.9-4.7,0.6-4.7,3.4v441.5c0,2.8,2,3.9,4.4,2.6l170.4-93.1 c2.4-1.3,4.7-4.6,5-7.4L451.7,107z"/></g></svg>
